public/images/icons/tune-vertical-variant.svg

<svg xmlns="http://www.w3.org/2000/svg" fill="currentColor" viewBox="0 0 24 24"><path d="M8 12.14V2H6v10.14c-1.72.45-3 2-3 3.86s1.28 3.41 3 3.86V22h2v-2.14c1.72-.45 3-2 3-3.86s-1.28-3.41-3-3.86M7 14c1.1 0 2 .9 2 2s-.9 2-2 2-2-.9-2-2 .9-2 2-2M18 2h-2v2.14c-1.72.45-3 2-3 3.86s1.28 3.41 3 3.86V22h2V11.86c1.72-.45 3-2 3-3.86s-1.28-3.41-3-3.86V2m-1 4c1.1 0 2 .9 2 2s-.9 2-2 2-2-.9-2-2 .9-2 2-2Z"/></svg>

<svg xmlns="http://www.w3.org/2000/svg" viewBox="0 0 24 24" fill="currentColor"><path d="M8 12.14V2H6V12.14C4.28 12.59 3 14.14 3 16S4.28 19.41 6 19.86V22H8V19.86C9.72 19.41 11 17.86 11 16S9.72 12.59 8 12.14M7 14C8.1 14 9 14.9 9 16S8.1 18 7 18C5.9 18 5 17.1 5 16S5.9 14 7 14M18 2H16V4.14C14.28 4.59 13 6.14 13 8S14.28 11.41 16 11.86V22H18V11.86C19.72 11.41 21 9.86 21 8S19.72 4.59 18 4.14V2M17 6C18.1 6 19 6.9 19 8S18.1 10 17 10C15.9 10 15 9.1 15 8S15.9 6 17 6Z" /></svg>
